X:1
T:The Dilly Song.
B:Songs of the West by S. Baring-Gould.
S:
M:4/4
L:1/4
K:G
B3/2 c1/2 d d|G2 G z|(F G) A F|
w:Come, and I will sing you. What *will you
G2 G z|B3/2 c1/2 d d|G2 G z|
w:sing me? I will sing you One, O!
(F G) A F|G2 G z|B B c d|
w:What *is your One, O? One of them is
e e d d|c c d d|G2 G2||
w:all al-one, and e-ver will re-main so. 